icons/svg/toggle-switch-on.svg

﻿<?xml version="1.0" encoding="utf-8"?>
<!DOCTYPE svg PUBLIC "-//W3C//DTD SVG 1.1//EN" "http://www.w3.org/Graphics/SVG/1.1/DTD/svg11.dtd">
<svg xmlns="http://www.w3.org/2000/svg" xmlns:xlink="http://www.w3.org/1999/xlink" version="1.1" baseProfile="full" width="24" height="24" viewBox="0 0 24.00 24.00" enable-background="new 0 0 24.00 24.00" xml:space="preserve">
	<path fill="#000000" fill-opacity="1" stroke-linejoin="round" d="M 17,7.00008C 19.7615,7.00008 22,9.23861 22,12.0001C 22,14.7615 19.7614,17.0001 17,17.0001C 14.2385,17.0001 12,14.7615 12,12.0001C 12,9.23861 14.2384,7.00008 17,7.00008 Z M 3.99992,14.0002C 2.89534,14.0002 1.99992,13.1047 1.99992,12.0002C 1.99992,10.8956 2.8953,10.0002 3.99988,10.0002L 9.99988,10.0002L 9.99988,14.0002L 3.99992,14.0002 Z "/>
</svg>

<svg xmlns="http://www.w3.org/2000/svg" version="1.1" baseProfile="full" width="24" height="24" viewBox="0 0 24.00 24.00" xml:space="preserve"><path fill="#000" fill-opacity="1" stroke-linejoin="round" d="M17 7c2.762 0 5 2.24 5 5 0 2.761-2.24 5-5 5-2.761 0-5-2.239-5-5 0-2.76 2.238-5 5-5zM4 14c-1.105 0-2-.895-2-2 0-1.104.895-2 2-2h6v4H4z"/></svg>
